X:114
T:Roddy McCorley
C:Newfoundland
M:4/4
L:1/8
K:D
|de | "D"f2 ef A2 de| f3 e d2 A2| "G"B2 d2 d2 ec| "D"d2 AF D2 fg|a2 aa f2 a2|
"G"b2 b2 "D"a2 fe|"G"d2 A2 "Em"g2 f2|"A7"e3 c e2 fg|"D"a2 a2 f2 a2|"G"b2 b2 "D"a2 fe|
"Bm" d2 A2 "Em"g2 f2|"A7"e3 d e2 de|"D"f2 ef A2 de|f3 e d2 A2|"G"B2 d2 d2 "Gm"e2|"D"d6|]
